.icons/oomox-ad/24x24/apps/bitwarden.svg

<svg xmlns="http://www.w3.org/2000/svg" width="24" height="24" version="1">
 <rect style="opacity:0.2" width="20" height="20" x="2" y="2.5" rx="1" ry="1"/>
 <rect style="fill:#2f91c9" width="20" height="20" x="2" y="2" rx="1" ry="1"/>
 <path style="opacity:0.2;fill:#ffffff" d="M 3,2 C 2.446,2 2,2.446 2,3 v 0.5 c 0,-0.554 0.446,-1 1,-1 h 18 c 0.554,0 1,0.446 1,1 V 3 C 22,2.446 21.554,2 21,2 Z"/>
 <path style="opacity:0.2" d="M 12,5.4999185 C 6.5653955,5.5001 6.4267495,5.502651 6.285156,5.5868325 5.984576,5.7655765 6,5.5454095 6,9.712809 c 0,4.228981 -0.00575,4.143743 0.3222655,4.963867 0.377323,0.943422 0.9847465,1.740955 1.982422,2.607422 0.8371125,0.72702 1.8304895,1.3845 2.9375005,1.943359 0.374516,0.189069 0.567626,0.275585 0.757812,0.272461 0.190186,0.0031 0.383296,-0.08339 0.757813,-0.272461 1.107011,-0.558859 2.100387,-1.216339 2.9375,-1.943359 0.997675,-0.866467 1.605098,-1.663999 1.982421,-2.607422 C 18.005753,13.856552 18,13.94179 18,9.712809 18,5.5454065 18.015423,5.7655765 17.714844,5.5868325 17.57325,5.5026515 17.434605,5.5001 12,5.4999185 Z m 0,2 c 2.24936,7.5e-5 3.192459,0.0035 3.983399,0.00977 0.0068,0.5561305 0.0166,0.8595905 0.0166,2.203125 0,2.1153985 -0.0043,3.1701645 -0.03418,3.6308595 -0.02989,0.460695 0.02587,0.161355 -0.145508,0.589844 -0.246929,0.617398 -0.594472,1.10951 -1.436524,1.84082 C 13.727275,16.344508 12.90591,16.875482 12,17.347574 Z"/>
 <path style="fill:#ffffff" d="M 12,5 C 6.5653955,5.0001815 6.4267495,5.00275 6.285156,5.086914 5.984576,5.265658 6,5.045491 6,9.2128905 6,13.441872 5.99425,13.356634 6.3222655,14.176758 c 0.377323,0.943422 0.9847465,1.740955 1.982422,2.607421 0.8371125,0.72702 1.8304895,1.3845 2.9375005,1.94336 C 11.616704,18.916608 11.809814,19.003124 12,19 c 0.190186,0.0031 0.383296,-0.08339 0.757813,-0.272461 1.107011,-0.55886 2.100387,-1.21634 2.9375,-1.94336 0.997675,-0.866466 1.605098,-1.663999 1.982421,-2.607421 C 18.005753,13.356633 18,13.441872 18,9.2128905 18,5.045488 18.015423,5.265658 17.714844,5.086914 17.57325,5.002733 17.434605,5.0001815 12,5 Z m 0,2 c 2.24936,7.5e-5 3.192459,0.0035 3.983399,0.00976 0.0068,0.5561305 0.0166,0.8595905 0.0166,2.203125 0,2.115398 -0.0043,3.170165 -0.03418,3.63086 -0.02989,0.460694 0.02587,0.161355 -0.145508,0.589843 -0.246929,0.617398 -0.594472,1.10951 -1.436524,1.84082 C 13.727275,15.84459 12.90591,16.375563 12,16.847656 Z"/>
</svg>

<svg xmlns="http://www.w3.org/2000/svg" width="24" height="24" version="1">
 <rect style="opacity:0.2" width="20" height="20" x="2" y="2.5" rx="1" ry="1"/>
 <rect style="fill:#175ddc" width="20" height="20" x="2" y="2" rx="1" ry="1"/>
 <path style="opacity:0.1;fill:#ffffff" d="M 3,2 C 2.446,2 2,2.446 2,3 v 0.5 c 0,-0.554 0.446,-1 1,-1 h 18 c 0.554,0 1,0.446 1,1 V 3 C 22,2.446 21.554,2 21,2 Z"/>
 <path style="opacity:0.2" d="M 12,5.5 C 12,5.5 6.4267,5.5027 6.2852,5.5869 5.9846,5.7657 6,5.5455 6,9.7129 6,13.942 5.9942,13.857 6.3223,14.677 6.6996,15.62 7.307,16.418 8.3047,17.284 9.1418,18.011 10.135,18.669 11.242,19.228 11.617,19.417 11.81,19.503 12,19.5 12.19,19.503 12.383,19.417 12.758,19.228 13.865,18.669 14.858,18.011 15.695,17.284 16.693,16.418 17.3,15.62 17.678,14.677 18.006,13.857 18,13.942 18,9.7129 18,5.5455 18.015,5.7657 17.715,5.5869 17.573,5.5027 12,5.5 12,5.5 Z M 12,7.5 H 16 V 13 C 16,13 15.992,13.505 15.82,13.934 15.573,14.551 15.226,15.043 14.384,15.774 13.727,16.345 12.906,16.876 12,17.348 Z"/>
 <path style="fill:#efefef" d="M 12,4.9999 C 12,4.9999 6.4267,5.0026 6.2852,5.0868 5.9846,5.2656 6,5.0454 6,9.2128 6,13.442 5.9942,13.357 6.3223,14.177 6.6996,15.12 7.307,15.918 8.3047,16.784 9.1418,17.511 10.135,18.169 11.242,18.728 11.617,18.917 11.81,19.003 12,19 12.19,19.003 12.383,18.917 12.758,18.728 13.865,18.169 14.858,17.511 15.695,16.784 16.693,15.918 17.3,15.12 17.678,14.177 18.006,13.357 18,13.442 18,9.2128 18,5.0454 18.015,5.2656 17.715,5.0868 17.573,5.0026 12,4.9999 12,4.9999 Z M 12,6.9999 H 16 V 12.5 C 16,12.5 15.992,13.005 15.82,13.434 15.573,14.051 15.226,14.543 14.384,15.274 13.727,15.845 12.906,16.376 12,16.848 Z"/>
</svg>
